X: 21
T:Captain Dunne's March
R:March
M:2/4
L:1/8
K:D
AF|D2 D>D|DF AF|G2 E>E|E3D|FA Bc|dA FD|A2 A>B|AG FE|
D2 D>D|DF AF|G2 E>E|E3E|F/2G/2A FD|E/2F/2G EC|D2 D>D|D2:|
|:AB/2c/2|d2 d>d|dA FD|G2 E>E|E2 cd|e2 e>f|ed cB|AB cB|AG FE|
D2 D>D|DF AF|G2 E>E|E3G|F/2G/2A FD|E/2F/2G EC|D2 D>D|D2:|
